X:1
T:Title
%%score 1 { 2 | 3 }
L:1/8
M:2/4
K:Eb
V:1 treble nm="Bright Piano"
V:2 bass nm="Bright Piano"
V:3 bass 
V:1
 z2[Q:1/4=92] E>[DF] | [EG]>[DF] [EG]>[Ec] | [EB]>[EG] E>[DF] | [EG]>[CE] [A,C]>[CE] | B,2 E>[DF] | %5
 [EG]>[DF] [EG]>[Ec] | [EB]>[EG] E>[EG] | [DF]>[CE] [DF]>[EG] | [DF]2 E>[DF] | %9
 [EG]>[DF] [EG]>[Ec] | [EB]>[EG] [DF]>E | [Ee]>[Ec] [Ee]>[Ec] | [EB]2 [GB]>[GB] | %13
 [Ac]>[Ad] [Ae]>[Ac] | [GB]<[EG] E>[FA] | [EG]>E [EG]>[DF] |[M:3/8] E2 z |[M:1/8] [GB] | %18
[M:2/4] [Ge]>B [Ae]>[Ac] | [GB]2 z [GB] | [Ac]>[Ae] [GB]>[EG] | [DF]2 z [DF] | %22
 [CE]>[=B,D] [CE]>[DF] | [EG]<[Ee] [Ec]>[FA] | [EG]>[B,E] [EG]>[DF] |[M:1/4] E2 |] %26
V:2
 z2 G,>A, | B,>A, B,>A, | G,>B, G,>A, | B,>G, E,>A, | G,2 G,>A, | B,>A, B,>A, | G,>B, G,>B, | %7
 B,>B, B,>B, | B,2 G,>A, | B,>A, B,>A, | G,>B, A,>G, | C>A, C>A, | G,2[K:treble] E>E | E>D C>E | %14
 E<[K:bass]B, G,>C | B,>G, B,>A, |[M:3/8] G,2 z |[M:1/8][K:treble] E |[M:2/4] E>E C>E | E2 z E | %20
 E>E E>[K:bass]B, | B,2 z A, | G,>G, G,>B, | B,<B, A,>C | B,>G, B,>A, |[M:1/4] G,2 |] %26
V:3
 z2 E,>E, | E,>E, E,>E, | E,>E, E,>E, | E,>E, A,,>C, | E,2 E,>E, | E,>E, E,>E, | E,>E, E,>E, | %7
 B,,>B,, B,,>B,, | B,,2 E,>E, | E,>E, E,>E, | E,>E, E,>E, | A,2 A,2 | E,2 E,>E, | A,>A, A,>A, | %14
 E,<E, E,>A,, | B,,>B,, B,,>B,, |[M:3/8] E,2 z |[M:1/8] E, |[M:2/4] G,>G, A,>A, | E,2 z E, | %20
 A,,>C, E,>E, | B,,2 z B,, | C,>G,, C,>B,, | E,<G,, A,,>A,, | B,,>B,, B,,>B,, |[M:1/4] E,2 |] %26

